packages/ffe-icons/icons/open/400/sm/keyboard_external_input.svg

<svg xmlns="http://www.w3.org/2000/svg" height="20" viewBox="0 -960 960 960" width="20"><path d="M168-276v-408 408Zm0 72q-29.7 0-50.85-21.15Q96-246.3 96-276v-408q0-29.7 21.15-50.85Q138.3-756 168-756h624q29.7 0 50.85 21.15Q864-713.7 864-684v192q0 18-11.25 27T828-456q-13.5 0-24.75-9T792-492v-192H168v408h276q15.3 0 25.65 10.289 10.35 10.29 10.35 25.5Q480-225 469.65-214.5 459.3-204 444-204H168Zm203.932-120h107.797Q495-324 505.5-334.289q10.5-10.29 10.5-25.5Q516-375 505.669-385.5q-10.33-10.5-25.601-10.5H372.271Q357-396 346.5-385.711q-10.5 10.29-10.5 25.5Q336-345 346.331-334.5q10.33 10.5 25.601 10.5ZM726-204H611.928q-15.269 0-25.599-10.289Q576-224.579 576-239.789 576-255 586.329-265.5q10.33-10.5 25.599-10.5H726l-32-32q-11-11-10.5-25.5T695-359q11-11 25.5-11t25.5 11l93.241 94.138Q850-254 850-239.818T839-215l-94 94q-11 11-25 10.5T695-122q-11-11-11-25.5t11-25.5l31-31ZM275.789-552Q291-552 301.5-562.289q10.5-10.29 10.5-25.5Q312-603 301.711-613.5q-10.29-10.5-25.5-10.5Q261-624 250.5-613.711q-10.5 10.29-10.5 25.5Q240-573 250.289-562.5q10.29 10.5 25.5 10.5Zm102 0Q393-552 403.5-562.289q10.5-10.29 10.5-25.5Q414-603 403.711-613.5q-10.29-10.5-25.5-10.5Q363-624 352.5-613.711q-10.5 10.29-10.5 25.5Q342-573 352.289-562.5q10.29 10.5 25.5 10.5Zm102 0Q495-552 505.5-562.289q10.5-10.29 10.5-25.5Q516-603 505.711-613.5q-10.29-10.5-25.5-10.5Q465-624 454.5-613.711q-10.5 10.29-10.5 25.5Q444-573 454.289-562.5q10.29 10.5 25.5 10.5Zm102 0Q597-552 607.5-562.289q10.5-10.29 10.5-25.5Q618-603 607.711-613.5q-10.29-10.5-25.5-10.5Q567-624 556.5-613.711q-10.5 10.29-10.5 25.5Q546-573 556.289-562.5q10.29 10.5 25.5 10.5Zm102 0Q699-552 709.5-562.289q10.5-10.29 10.5-25.5Q720-603 709.711-613.5q-10.29-10.5-25.5-10.5Q669-624 658.5-613.711q-10.5 10.29-10.5 25.5Q648-573 658.289-562.5q10.29 10.5 25.5 10.5Zm-408 96Q291-456 301.5-466.289q10.5-10.29 10.5-25.5Q312-507 301.711-517.5q-10.29-10.5-25.5-10.5Q261-528 250.5-517.711q-10.5 10.29-10.5 25.5Q240-477 250.289-466.5q10.29 10.5 25.5 10.5Zm102 0Q393-456 403.5-466.289q10.5-10.29 10.5-25.5Q414-507 403.711-517.5q-10.29-10.5-25.5-10.5Q363-528 352.5-517.711q-10.5 10.29-10.5 25.5Q342-477 352.289-466.5q10.29 10.5 25.5 10.5Zm102 0Q495-456 505.5-466.289q10.5-10.29 10.5-25.5Q516-507 505.711-517.5q-10.29-10.5-25.5-10.5Q465-528 454.5-517.711q-10.5 10.29-10.5 25.5Q444-477 454.289-466.5q10.29 10.5 25.5 10.5ZM582-456q23 0 29.5-14t6.5-22q0-15.3-10.289-25.65-10.29-10.35-25.5-10.35Q567-528 556.5-517.711q-10.5 10.29-10.5 25.5Q546-477 556.35-466.5 566.7-456 582-456Zm66-36.211Q648-477 658.289-466.5q10.29 10.5 25.5 10.5Q699-456 709.5-466.35 720-476.7 720-492v4.5-4.5q0-15.3-10.289-25.65-10.29-10.35-25.5-10.35Q669-528 658.5-517.711q-10.5 10.29-10.5 25.5Z"/></svg>

<svg xmlns="http://www.w3.org/2000/svg" height="20" viewBox="0 -960 960 960" width="20"><path d="M168-276v-408 408Zm0 72q-29.7 0-50.85-21.15Q96-246.3 96-276v-408q0-29.7 21.15-50.85Q138.3-756 168-756h624q29.7 0 50.85 21.15Q864-713.7 864-684v192q0 18-11.25 27T828-456q-13.5 0-24.75-9T792-492v-192H168v408h276q15.3 0 25.65 10.29Q480-255.42 480-240.21t-10.35 25.71Q459.3-204 444-204H168Zm203.93-120h107.8q15.27 0 25.77-10.29t10.5-25.5q0-15.21-10.33-25.71t-25.6-10.5h-107.8q-15.27 0-25.77 10.29t-10.5 25.5q0 15.21 10.33 25.71t25.6 10.5ZM726-204H611.93q-15.27 0-25.6-10.29Q576-224.58 576-239.79t10.33-25.71q10.33-10.5 25.6-10.5H726l-32-32q-11-11-10.5-25.5T695-359q11-11 25.5-11t25.5 11l93.24 94.14Q850-254 850-239.82T839-215l-94 94q-11 11-25 10.5T695-122q-11-11-11-25.5t11-25.5l31-31ZM275.79-552q15.21 0 25.71-10.29t10.5-25.5q0-15.21-10.29-25.71t-25.5-10.5q-15.21 0-25.71 10.29t-10.5 25.5q0 15.21 10.29 25.71t25.5 10.5Zm102 0q15.21 0 25.71-10.29t10.5-25.5q0-15.21-10.29-25.71t-25.5-10.5q-15.21 0-25.71 10.29t-10.5 25.5q0 15.21 10.29 25.71t25.5 10.5Zm102 0q15.21 0 25.71-10.29t10.5-25.5q0-15.21-10.29-25.71t-25.5-10.5q-15.21 0-25.71 10.29t-10.5 25.5q0 15.21 10.29 25.71t25.5 10.5Zm102 0q15.21 0 25.71-10.29t10.5-25.5q0-15.21-10.29-25.71t-25.5-10.5q-15.21 0-25.71 10.29t-10.5 25.5q0 15.21 10.29 25.71t25.5 10.5Zm102 0q15.21 0 25.71-10.29t10.5-25.5q0-15.21-10.29-25.71t-25.5-10.5q-15.21 0-25.71 10.29t-10.5 25.5q0 15.21 10.29 25.71t25.5 10.5Zm-408 96q15.21 0 25.71-10.29t10.5-25.5q0-15.21-10.29-25.71t-25.5-10.5q-15.21 0-25.71 10.29t-10.5 25.5q0 15.21 10.29 25.71t25.5 10.5Zm102 0q15.21 0 25.71-10.29t10.5-25.5q0-15.21-10.29-25.71t-25.5-10.5q-15.21 0-25.71 10.29t-10.5 25.5q0 15.21 10.29 25.71t25.5 10.5Zm102 0q15.21 0 25.71-10.29t10.5-25.5q0-15.21-10.29-25.71t-25.5-10.5q-15.21 0-25.71 10.29t-10.5 25.5q0 15.21 10.29 25.71t25.5 10.5ZM582-456q23 0 29.5-14t6.5-22q0-15.3-10.29-25.65Q597.42-528 582.21-528t-25.71 10.29q-10.5 10.29-10.5 25.5t10.35 25.71Q566.7-456 582-456Zm66-36.21q0 15.21 10.29 25.71t25.5 10.5q15.21 0 25.71-10.35T720-492v4.5-4.5q0-15.3-10.29-25.65Q699.42-528 684.21-528t-25.71 10.29q-10.5 10.29-10.5 25.5Z"/></svg>
